X:5854
T:Gan ainm
M:4/4
L:1/8
Q:220
S:Video: "Out of Ireland"
R:reel
K:G
|: DG (3GGG ABde | fdde fdcA | DGFG A2 de |1 fdcA GBAF :|2 fdcA BA G2 |
| g3e fdde | fdge fd {e}(3d^cd | g3e fdde | fdcA GBAd
| g3e fdde | fgag fdd^c | defg a2 ag | fdcA G4 |


